SVG_Azure_Grouped/Management/Azure Role Based Access Control.svg

<?xml version="1.0" encoding="UTF-8" standalone="no"?>
<!-- Generated by Microsoft Visio, SVG Export Azure Role Based Access Control.svg Page-1 -->

<svg
   xmlns:dc="http://purl.org/dc/elements/1.1/"
   xmlns:cc="http://creativecommons.org/ns#"
   xmlns:rdf="http://www.w3.org/1999/02/22-rdf-syntax-ns#"
   xmlns:svg="http://www.w3.org/2000/svg"
   xmlns="http://www.w3.org/2000/svg"
   xmlns:sodipodi="http://sodipodi.sourceforge.net/DTD/sodipodi-0.dtd"
   xmlns:inkscape="http://www.inkscape.org/namespaces/inkscape"
   width="0.78735912in"
   height="0.78735912in"
   viewBox="0 0 56.689855 56.689997"
   xml:space="preserve"
   class="st3"
   version="1.1"
   id="svg47"
   sodipodi:docname="Azure Role Based Access Control.svg"
   style="font-size:12px;overflow:visible;color-interpolation-filters:sRGB;fill:none;fill-rule:evenodd;stroke-linecap:square;stroke-miterlimit:3"
   inkscape:version="0.92.5 (2060ec1f9f, 2020-04-08)"><metadata
   id="metadata51"><rdf:RDF><cc:Work
       rdf:about=""><dc:format>image/svg+xml</dc:format><dc:type
         rdf:resource="http://purl.org/dc/dcmitype/StillImage" /></cc:Work></rdf:RDF></metadata><sodipodi:namedview
   pagecolor="#ffffff"
   bordercolor="#666666"
   borderopacity="1"
   objecttolerance="10"
   gridtolerance="10"
   guidetolerance="10"
   inkscape:pageopacity="0"
   inkscape:pageshadow="2"
   inkscape:window-width="640"
   inkscape:window-height="480"
   id="namedview49"
   showgrid="false"
   inkscape:zoom="1.8365233"
   inkscape:cx="37.795184"
   inkscape:cy="18.900351"
   inkscape:window-x="0"
   inkscape:window-y="0"
   inkscape:window-maximized="0"
   inkscape:current-layer="svg47" />
	<style
   type="text/css"
   id="style2">
	<![CDATA[
		.st1 {fill:url(#grad0-9);stroke:none;stroke-linecap:butt;stroke-width:1.15109}
		.st2 {fill:url(#grad0-14);stroke:none;stroke-linecap:butt;stroke-width:1.15109}
		.st3 {fill:none;fill-rule:evenodd;font-size:12px;overflow:visible;stroke-linecap:square;stroke-miterlimit:3}
	]]>
	</style>

	<defs
   id="Patterns_And_Gradients">
		<linearGradient
   id="grad0-9"
   x1="0"
   y1="39.69"
   x2="56.69"
   y2="39.69"
   gradientUnits="userSpaceOnUse">
			<stop
   offset="0.22"
   stop-color="#32d4f5"
   stop-opacity="1"
   id="stop4" />
			<stop
   offset="1"
   stop-color="#198ab3"
   stop-opacity="1"
   id="stop6" />
		</linearGradient>
		<linearGradient
   id="grad0-14"
   x1="-4.272061e-16"
   y1="94.502747"
   x2="5.5506397"
   y2="94.502747"
   gradientTransform="scale(1.0395198,0.96198262)"
   gradientUnits="userSpaceOnUse">
			<stop
   offset="0.22"
   stop-color="#32d4f5"
   stop-opacity="1"
   id="stop9" />
			<stop
   offset="1"
   stop-color="#198ab3"
   stop-opacity="1"
   id="stop11" />
		</linearGradient>
	</defs>
	<g
   id="g45"
   transform="translate(-5.6693772,-5.6743)">
		<title
   id="title15">Page-1</title>
		<g
   id="group12567-1"
   transform="translate(5.66929,-34.0157)">
			<title
   id="title17">Azure Role Based Access Control.12567</title>
			<g
   id="group12568-2">
				<title
   id="title19">paths</title>
				<g
   id="group12569-3">
					<title
   id="title21">Microsoft_account</title>
					<g
   id="group12570-4">
						<title
   id="title23">group1068-2156_1_</title>
						<g
   id="group12571-5">
							<title
   id="title25">Sheet.12571</title>
							<g
   id="shape12572-6">
								<title
   id="title27">path5</title>
								<path
   d="M 56.69,73.5 28.42,39.69 0,73.36 28.28,96.38 Z M 24.76,85.15 V 70.84 c -2.67,-1.41 -4.36,-4.21 -4.36,-7.58 0,-4.63 3.52,-8.42 7.88,-8.42 4.36,0 7.87,3.79 7.87,8.42 0,3.23 -1.82,6.17 -4.36,7.44 v 2.8 l -0.14,0.14 -2.67,2.81 2.81,2.95 v 0.14 l -2.53,2.81 2.39,2.66 -3.51,3.65 z"
   class="st1"
   id="path29"
   inkscape:connector-curvature="0"
   style="fill:url(#grad0-9);stroke:none;stroke-width:1.15109003;stroke-linecap:butt" />
							</g>
						</g>
						<g
   id="group12573-10"
   transform="translate(25.4776,-32.4349)">
							<title
   id="title33">Sheet.12573</title>
							<g
   id="shape12574-11">
								<title
   id="title35">path10</title>
								<path
   d="m 5.77,93.43 c 0,-1.4 -1.69,-2.52 -2.96,-2.52 -1.4,0 -2.81,0.98 -2.81,2.38 0,1.4 1.41,2.95 2.81,2.95 1.27,0.14 2.96,-1.27 2.96,-2.81 z"
   class="st2"
   id="path37"
   inkscape:connector-curvature="0"
   style="fill:url(#grad0-14);stroke:none;stroke-width:1.15109003;stroke-linecap:butt" />
							</g>
						</g>
					</g>
				</g>
			</g>
		</g>
	</g>
</svg>

<?xml version="1.0" encoding="UTF-8" standalone="no"?>
<!DOCTYPE svg PUBLIC "-//W3C//DTD SVG 1.1//EN" "http://www.w3.org/Graphics/SVG/1.1/DTD/svg11.dtd">
<!-- Generated by Microsoft Visio, SVG Export Azure Role Based Access Control.svg Page-1 -->
<svg xmlns="http://www.w3.org/2000/svg" xmlns:xlink="http://www.w3.org/1999/xlink" xmlns:ev="http://www.w3.org/2001/xml-events"
		width="0.944882in" height="1.33858in" viewBox="0 0 68.0315 96.378" xml:space="preserve" color-interpolation-filters="sRGB"
		class="st3">
	<style type="text/css">
	<![CDATA[
		.st1 {fill:url(#grad0-9);stroke:none;stroke-linecap:butt;stroke-width:1.15109}
		.st2 {fill:url(#grad0-14);stroke:none;stroke-linecap:butt;stroke-width:1.15109}
		.st3 {fill:none;fill-rule:evenodd;font-size:12px;overflow:visible;stroke-linecap:square;stroke-miterlimit:3}
	]]>
	</style>

	<defs id="Patterns_And_Gradients">
		<linearGradient id="grad0-9" x1="0" y1="0" x2="1" y2="0" gradientTransform="rotate(89.928501126486 0.5 0.5)">
			<stop offset="0.22" stop-color="#32d4f5" stop-opacity="1"/>
			<stop offset="1" stop-color="#198ab3" stop-opacity="1"/>
		</linearGradient>
		<linearGradient id="grad0-14" x1="0" y1="0" x2="1" y2="0" gradientTransform="rotate(89.619091264739 0.5 0.5)">
			<stop offset="0.22" stop-color="#32d4f5" stop-opacity="1"/>
			<stop offset="1" stop-color="#198ab3" stop-opacity="1"/>
		</linearGradient>
	</defs>
	<g>
		<title>Page-1</title>
		<g id="group12285-1" transform="translate(5.66929,-34.0157)">
			<title>Azure Role Based Access Control.12285</title>
			<g id="group12286-2">
				<title>paths</title>
				<g id="group12287-3">
					<title>Microsoft_account</title>
					<g id="group12288-4">
						<title>group1068-2156_1_</title>
						<g id="group12289-5">
							<title>Sheet.12289</title>
							<g id="shape12290-6">
								<title>path5</title>
								<path d="M56.69 73.5 L28.42 39.69 L0 73.36 L28.28 96.38 L56.69 73.5 ZM24.76 85.15 L24.76 70.84 C22.09
											 69.43 20.4 66.63 20.4 63.26 C20.4 58.63 23.92 54.84 28.28 54.84 C32.64 54.84 36.15 58.63
											 36.15 63.26 C36.15 66.49 34.33 69.43 31.79 70.7 L31.79 73.5 L31.65 73.64 L28.98 76.45
											 L31.79 79.4 L31.79 79.54 L29.26 82.35 L31.65 85.01 L28.14 88.66 L24.76 85.15 Z"
										class="st1"/>
							</g>
						</g>
						<g id="group12291-10" transform="translate(25.4776,-32.4349)">
							<title>Sheet.12291</title>
							<g id="shape12292-11">
								<title>path10</title>
								<path d="M5.77 93.43 C5.77 92.03 4.08 90.91 2.81 90.91 C1.41 90.91 0 91.89 0 93.29 C0 94.69 1.41
											 96.24 2.81 96.24 C4.08 96.38 5.77 94.97 5.77 93.43 Z" class="st2"/>
							</g>
						</g>
					</g>
				</g>
			</g>
		</g>
	</g>
</svg>
